X: 28277
T: Mrs. Macpherson Of Cluny
R: jig
M: 6/8
K: Amajor
d|"A"c2e "/C#"ece|"D"fga "A/E"ecA|"A"c2e "F#m"ecA|"Bm"GAB "E7"Bcd|
"A"c2e "/C#"ece|"D"fga "A/C#"ecA|"Bm"Bcd "E7"efg|"A"aec "/E"A2:|
((3efg)|"A"a3 "/E"Ace|"A"aga "/C#"ecA|"Bm"dcB fdB|"E/B"bge "E7/E"efg|
"A"a3 "/G#"Ace|"F#m"aga "A/E"ecA|"Bm/D"Bcd "E7"efg|"A"aec "/E"A2 ((3efg)|
"A"a3 "/E"Ace|"A"aga "/C#"ecA|"Bm"dcB "F#/C#"fdB|"Bm/D"bge "E7"efg|
"A"a2e "/C#"ece|"D"fga "A/C#"ecA|"Bm"Bcd "E7"efg|"A"aec A3||

